X:1
T:French Suite III Menuet & Trio
T:BWV 814
T:J. S. Bach
%%score { ( 1 3 ) | 2 }
L:1/8
Q:1/4=184
M:3/4
K:D
V:1 treble nm="Harp"
V:3 treble 
V:2 bass 
V:1
"^Presto" df bf cf | df Bf ^Af | Bf bf cf | df Bf ^Af | df dB ge | ce cA fd | Bf ed cB | %7
 ^AF Ac fe | df bf cf | df Bf ^Af | Bf bf cf | df Bf ^Af | df dB ge | ce cA ae | fa fd Ac | d6 | %16
 df bf cf | df Bf ^Af | Bf bf cf | df Bf ^Af | df dB ge | ce cA fd | Bf ed cB | ^AF Ac fe | %24
 df bf cf | df Bf ^Af | Bf bf cf | df Bf ^Af | df dB ge | ce cA ae | fa fd Ac | d6 | ag fe dc | %33
 de fd eg | fg a2 c2 | de f2 e2 | f2 b2 ^g2 | Bc d2 c2 | BA ^GF G^E | F6 | A3 B/=c/ B2 | AG AF GE | %42
 B3 c/d/ c2 | B^A B^G AF | c^A FA ce | gc fc ec | dc Bd fb | fB eB dB | cB dB eB | fB gB eB | %50
{e} f2 ed cd | B6 | ag fe dc | de fd eg | fg a2 c2 | de f2 e2 | f2 b2 ^g2 | Bc d2 c2 | BA ^GF G^E | %59
 F6 | A3 B/=c/ B2 | AG AF GE | B3 c/d/ c2 | B^A B^G AF | c^A FA ce | gc fc ec | dc Bd fb | %67
 fB eB dB | cB dB eB | fB gB eB |{e} f2 ed cd | B6 | FG A2 GA/4G/4A/4G/4 | A/4G/4A/4B/4=c B2 A2 | %74
 G2 BA GF | AG FG EG | ^AB cA Bd | e/f/g f3 e | dc ed cB | f6 | FG A2 GA/4G/4A/4G/4 | %81
 A/4G/4A/4B/4=c B2 A2 | G2 BA GF | AG FG EG | ^AB cA Bd | e/f/g f3 e | dc ed cB | f6 | a2 f2 e2 | %89
 ^d6 | e2 f2 g2 | cB dc BA | de fd eg | b2 a2 g2 | fe gf ef | d6 | ag f2 g2 | e2 f2 g2 | f2 ed cB | %99
 B^A ^GA FA | cd ec df | g2 f2 e2 | dc ed cd | B6 | a2 f2 e2 | ^d6 | e2 f2 g2 | cB dc BA | %108
 de fd eg | b2 a2 g2 | fe gf ef | d6 | ag f2 g2 | e2 f2 g2 | f2 ed cB | B^A ^GA FA | cd ec df | %117
 g2 f2 e2 | dc ed cd | B6 | df bf cf | df Bf ^Af | Bf bf cf | df Bf ^Af | df dB ge | ce cA fd | %126
 Bf ed cB | ^AF Ac fe | df bf cf | df Bf ^Af | Bf bf cf | df Bf ^Af | df dB ge | ce cA ae | %134
 fa fd Ac | d6 | ag fe dc | de fd eg | fg a2 c2 | de f2 e2 | f2 b2 ^g2 | Bc d2 c2 | BA ^GF G^E | %143
 F6 | A3 B/=c/ B2 | AG AF GE | B3 c/d/ c2 | B^A B^G AF | c^A FA ce | gc fc ec | dc Bd fb | %151
 fB eB dB | cB dB eB | fB gB eB |{e} f2 ed cd | B6 |] %156
V:2
 B,,2 B,2 ^A,2 | B,2 D2 F2 | D2 B,2 ^A,2 | B,2 D,2 F,2 | B,,2 B,2 E,2 | A,,2 F,2 D,2 | %6
 G,,2 G,2 E,2 | F,G, F,E, D,C, | B,,2 B,2 ^A,2 | B,2 D2 F2 | D2 B,2 ^A,2 | B,2 D,2 F,2 | %12
 B,,2 B,2 E,2 | A,,2 A,2 C,2 | D,2 F,2 A,2 | D,F, A,F, D,F, | B,,2 B,2 ^A,2 | B,2 D2 F2 | %18
 D2 B,2 ^A,2 | B,2 D,2 F,2 | B,,2 B,2 E,2 | A,,2 F,2 D,2 | G,,2 G,2 E,2 | F,G, F,E, D,C, | %24
 B,,2 B,2 ^A,2 | B,2 D2 F2 | D2 B,2 ^A,2 | B,2 D,2 F,2 | B,,2 B,2 E,2 | A,,2 A,2 C,2 | %30
 D,2 F,2 A,2 | D,2 A,,2 D,,2 | F,A, DA, E,A, | F,A, D,A, C,A, | D,A, DA, E,A, | F,A, D,A, C,A, | %36
 D,F, D,B,, B,^G, | ^E,^G, C,G, E,G, | F,2 C2 C,2 | F,A, CA, F,A, | ^D,F, B,,F, D,F, | E,6 | %42
 ^E,^G, C,G, E,G, | F,4 z2 | F,2 C,2 ^A,,2 | F,,2 ^G,,2 ^A,,2 | B,,2 F,2 B,2 | D2 C2 B,2 | %48
 E,2 F,2 G,2 | D,2 E,2 C,2 | D,2 E,2 F,2 | B,2 F,2 B,,2 | F,A, DA, E,A, | F,A, D,A, C,A, | %54
 D,A, DA, E,A, | F,A, D,A, C,A, | D,F, D,B,, B,^G, | ^E,^G, C,G, E,G, | F,2 C2 C,2 | %59
 F,A, CA, F,A, | ^D,F, B,,F, D,F, | E,6 | ^E,^G, C,G, E,G, | F,4 z2 | F,2 C,2 ^A,,2 | %65
 F,,2 ^G,,2 ^A,,2 | B,,2 F,2 B,2 | D2 C2 B,2 | E,2 F,2 G,2 | D,2 E,2 C,2 | D,2 E,2 F,2 | %71
 B,2 F,2 B,,2 | B,6 | ^D,6 | E,2 A,,2 B,,2 | E,,2 B,,2 E,2 | G,6 | ^A,,6 | B,,2 A,,2 G,,2 | F,,6 | %80
 B,6 | ^D,6 | E,2 A,,2 B,,2 | E,,2 B,,2 E,2 | G,6 | ^A,,6 | B,,2 A,,2 G,,2 | F,,6 | F,G, A,2 G,2 | %89
 =C2 B,2 A,2 | G,F, A,G, F,E, | A,6- | A,6- | A,2 B,2 C2 | D2 G,2 A,2 | D,2 A,,2 D,,2 | %96
 D,E, F,E, F,G, | A,B, CB, ^A,C | D,2 G,2 E,2 | F,6- | F,6- | F,2 ^G,2 ^A,2 | B,2 E,2 F,2 | B,,6 | %104
 F,G, A,2 G,2 | =C2 B,2 A,2 | G,F, A,G, F,E, | A,6- | A,6- | A,2 B,2 C2 | D2 G,2 A,2 | %111
 D,2 A,,2 D,,2 | D,E, F,E, F,G, | A,B, CB, ^A,C | D,2 G,2 E,2 | F,6- | F,6- | F,2 ^G,2 ^A,2 | %118
 B,2 E,2 F,2 | B,,6 | B,,2 B,2 ^A,2 | B,2 D2 F2 | D2 B,2 ^A,2 | B,2 D,2 F,2 | B,,2 B,2 E,2 | %125
 A,,2 F,2 D,2 | G,,2 G,2 E,2 | F,G, F,E, D,C, | B,,2 B,2 ^A,2 | B,2 D2 F2 | D2 B,2 ^A,2 | %131
 B,2 D,2 F,2 | B,,2 B,2 E,2 | A,,2 A,2 C,2 | D,2 F,2 A,2 | D,2 A,,2 D,,2 | F,A, DA, E,A, | %137
 F,A, D,A, C,A, | D,A, DA, E,A, | F,A, D,A, C,A, | D,F, D,B,, B,^G, | ^E,^G, C,G, E,G, | %142
 F,2 C2 C,2 | F,A, CA, F,A, | ^D,F, B,,F, D,F, | E,6 | ^E,^G, C,G, E,G, | F,4 z2 | F,2 C,2 ^A,,2 | %149
 F,,2 ^G,,2 ^A,,2 | B,,2 F,2 B,2 | D2 C2 B,2 | E,2 F,2 G,2 | D,2 E,2 C,2 | D,2 E,2 F,2 | %155
 B,2 F,2 B,,2 |] %156
V:3
 x6 | x6 | x6 | x6 | x6 | x6 | x6 | x6 | x6 | x6 | x6 | x6 | x6 | x6 | x6 | x6 | x6 | x6 | x6 | %19
 x6 | x6 | x6 | x6 | x6 | x6 | x6 | x6 | x6 | x6 | x6 | x6 | x6 | x6 | x6 | x6 | x6 | x6 | x6 | %38
 x6 | x6 | x6 | x6 | x6 | x6 | x6 | x6 | x6 | x6 | x6 | x6 | x6 | x6 | x6 | x6 | x6 | x6 | x6 | %57
 x6 | x6 | x6 | x6 | x6 | x6 | x6 | x6 | x6 | x6 | x6 | x6 | x6 | x6 | x6 | D2 ^D2 E2 | F6 | %74
 E4 ^D2 | E6 | z2 E2 D2 | z2 z c F2 | B6 | ^A6 | D2 ^D2 E2 | F6 | E4 ^D2 | E6 | z2 E2 D2 | %85
 z2 z c F2 | B6 | ^A6 | c2 =c2 B2 | BA AG GF | B6 | z2 E2 G2 | FG A2 G2- | G2 F2 E2 | D2 d2 c2 | %95
 d6 | fe d2 e2 | c2 d2 e2- | ed cB ^AB | z2[I:staff +1] B,2 ^A,2- | A,B, C^A, B,D | E2 D2 C2 | %102
 B,2[I:staff -1] B2 ^A2 | B6 | c2 =c2 B2 | BA AG GF | B6 | z2 E2 G2 | FG A2 G2- | G2 F2 E2 | %110
 D2 d2 c2 | d6 | fe d2 e2 | c2 d2 e2- | ed cB ^AB | z2[I:staff +1] B,2 ^A,2- | A,B, C^A, B,D | %117
 E2 D2 C2 | B,2[I:staff -1] B2 ^A2 | B6 | x6 | x6 | x6 | x6 | x6 | x6 | x6 | x6 | x6 | x6 | x6 | %131
 x6 | x6 | x6 | x6 | x6 | x6 | x6 | x6 | x6 | x6 | x6 | x6 | x6 | x6 | x6 | x6 | x6 | x6 | x6 | %150
 x6 | x6 | x6 | x6 | x6 | x6 |] %156

